priv/static/svgs/icons_new/files-generic.svg

<svg width="32" height="32" viewBox="0 0 32 32" fill="none" xmlns="http://www.w3.org/2000/svg">
<path d="M12.0642 19.2193C12.4332 18.1923 13.0225 17.2597 13.7903 16.4877L22.7467 7.48188C23.5606 6.66352 24.8802 6.66352 25.694 7.48188V7.48188C26.5079 8.30024 26.5079 9.62707 25.694 10.4454L16.7376 19.4512C15.9698 20.2233 15.0423 20.8159 14.021 21.1868L13.0519 21.5389C12.2193 21.8413 11.4134 21.0309 11.7141 20.1938L12.0642 19.2193Z" stroke="black"/>
<line y1="-0.5" x2="4.65134" y2="-0.5" transform="matrix(0.70516 0.709048 -0.70516 0.709048 21.2727 8.96362)" stroke="black"/>
<path d="M17.9369 7H14.5C10.7288 7 8.84315 7 7.67157 8.17157C6.5 9.34315 6.5 11.2288 6.5 15V18C6.5 21.7712 6.5 23.6569 7.67157 24.8284C8.84315 26 10.7288 26 14.5 26H17.3958C21.167 26 23.0527 26 24.2242 24.8284C25.3958 23.6569 25.3958 21.7712 25.3958 18V16" stroke="black" stroke-linecap="round"/>
</svg>

<svg width="32" height="32" viewBox="0 0 32 32" fill="none" xmlns="http://www.w3.org/2000/svg">
  <symbol id="item" viewBox="0 0 32 32" stroke-width="1" fill="none">
    <path d="M12.064 19.22a7.441 7.441 0 0 1 1.726-2.732l8.957-9.006a2.076 2.076 0 0 1 2.947 0 2.104 2.104 0 0 1 0 2.963l-8.956 9.006a7.388 7.388 0 0 1-2.717 1.736l-.97.352c-.832.302-1.638-.508-1.337-1.345l.35-.975Z" stroke="currentColor"/><path transform="scale(.99725 1.00275) rotate(45 -.125 30.219)" stroke="currentColor" d="M0-.5h4.651"/><path d="M17.937 7H14.5c-3.771 0-5.657 0-6.828 1.172C6.5 9.343 6.5 11.229 6.5 15v3c0 3.771 0 5.657 1.172 6.828C8.843 26 10.729 26 14.5 26h2.896c3.771 0 5.657 0 6.828-1.172 1.172-1.171 1.172-3.057 1.172-6.828v-2" stroke="currentColor" stroke-linecap="round"/>
  </symbol>
</svg>
